X: 8996
T: Cypress, The
R: slide
M: 12/8
K: Aminor
|:Acd e3 egd efg|~f3 efc dGc dGB|
ABc aAg AeA gAe|g~a2- age ~g3 dcB:|
e3- efd c3- cBA|f3- fge d3- def|
e3- efd c3- cBA|d2e B3- B2D ABc|
e3- efd c3- cBA|f3- fge d3- deg|
aeg a2e c'3 beg|a2g d3 dec dcB|

